svgs/musify.svg

<svg width="192" height="192" viewBox="0 0 192 192" fill="none" xmlns="http://www.w3.org/2000/svg">
<path d="M59.3878 159.12C72.0302 173.627 95.6048 173.627 108.247 159.12C112.879 153.805 115.593 147.568 116.388 141.172C116.66 138.98 114.84 137.198 112.634 137.069C93.6659 135.956 83.5188 126.663 82.193 108.626C82.0251 106.341 80.1143 104.489 77.8588 104.894C70.9041 106.14 64.3155 109.591 59.3878 115.245C48.2041 128.079 48.2041 146.286 59.3878 159.12Z" stroke="black" stroke-width="12" stroke-linecap="round" stroke-linejoin="round"/>
<path d="M121.449 50.6139V106.905C121.449 111.119 120.651 115.856 117.122 118.157C116.167 118.78 115.019 119.274 113.565 119.576C113.5 119.59 113.432 119.596 113.366 119.596C101.905 119.498 96.6143 102.731 96.6143 98.3092V47.2408C96.6143 39.7698 101.049 21.1437 121.449 22.0306C140.752 22.8698 150.525 42.7676 143.256 56.1767C142.539 57.4987 140.864 57.8571 139.544 57.1356L124.409 48.8592C123.076 48.1304 121.449 49.0949 121.449 50.6139Z" stroke="black" stroke-width="12" stroke-linecap="round" stroke-linejoin="round"/>
</svg>

<svg width="192" height="192" viewBox="0 0 192 192" fill="none" xmlns="http://www.w3.org/2000/svg"><path d="M59.388 159.12c12.642 14.507 36.217 14.507 48.859 0 4.632-5.315 7.346-11.552 8.141-17.948.272-2.192-1.548-3.974-3.754-4.103-18.968-1.113-29.115-10.406-30.441-28.443-.168-2.285-2.079-4.137-4.334-3.732-6.955 1.246-13.543 4.697-18.471 10.351-11.184 12.834-11.184 31.041 0 43.875ZM121.449 50.614v56.291c0 4.214-.798 8.951-4.327 11.252-.955.623-2.103 1.117-3.557 1.419a.953.953 0 0 1-.199.02c-11.461-.098-16.752-16.865-16.752-21.287V47.241c0-7.471 4.435-26.097 24.835-25.21 19.303.839 29.076 20.737 21.807 34.146-.717 1.322-2.392 1.68-3.712.959l-15.135-8.277c-1.333-.729-2.96.236-2.96 1.755Z" stroke="#000" stroke-width="12" stroke-linecap="round" stroke-linejoin="round"/></svg>
